svg/restore.svg

<?xml version="1.0" encoding="UTF-8"?>
<svg xmlns="http://www.w3.org/2000/svg" xmlns:xlink="http://www.w3.org/1999/xlink" width="32" height="32" viewBox="0 0 32 32">
<path fill-rule="nonzero" fill="rgb(0%, 0%, 0%)" fill-opacity="1" d="M 16 1.28125 C 11.855469 1.28125 7.90625 3.027344 5.121094 6.097656 L 5.121094 3.199219 C 5.144531 2.726562 4.90625 2.277344 4.5 2.035156 C 4.09375 1.792969 3.585938 1.792969 3.179688 2.035156 C 2.773438 2.28125 2.535156 2.726562 2.558594 3.199219 L 2.558594 10.238281 L 9.601562 10.238281 C 10.0625 10.246094 10.492188 10.003906 10.722656 9.605469 C 10.957031 9.207031 10.957031 8.714844 10.722656 8.316406 C 10.492188 7.917969 10.0625 7.671875 9.601562 7.679688 L 7.132812 7.679688 C 9.425781 5.226562 12.640625 3.832031 16 3.839844 C 22.730469 3.839844 28.160156 9.269531 28.160156 16 C 28.160156 22.730469 22.730469 28.160156 16 28.160156 C 9.269531 28.160156 3.839844 22.730469 3.839844 16 C 3.847656 15.539062 3.605469 15.109375 3.207031 14.875 C 2.808594 14.644531 2.3125 14.644531 1.914062 14.875 C 1.515625 15.109375 1.273438 15.539062 1.28125 16 C 1.28125 24.113281 7.886719 30.71875 16 30.71875 C 24.113281 30.71875 30.71875 24.113281 30.71875 16 C 30.71875 7.886719 24.113281 1.28125 16 1.28125 M 16 11.519531 C 13.539062 11.519531 11.519531 13.539062 11.519531 16 C 11.519531 18.460938 13.539062 20.480469 16 20.480469 C 18.460938 20.480469 20.480469 18.460938 20.480469 16 C 20.480469 13.539062 18.460938 11.519531 16 11.519531 M 16 14.078125 C 17.074219 14.078125 17.921875 14.925781 17.921875 16 C 17.925781 16.511719 17.726562 17.003906 17.363281 17.363281 C 17.003906 17.726562 16.511719 17.925781 16 17.921875 C 15.488281 17.925781 14.996094 17.726562 14.636719 17.363281 C 14.273438 17.003906 14.074219 16.511719 14.078125 16 C 14.078125 14.925781 14.925781 14.078125 16 14.078125 M 16 14.078125 "/>
</svg>

<svg role="img" viewBox="0 0 32 32" height="32" width="32" xmlns="http://www.w3.org/2000/svg"><path d="M16 1.281A14.681 14.681 0 0 0 5.121 6.098V3.199A1.286 1.286 0 0 0 4.5 2.035a1.29 1.29 0 0 0-1.32 0A1.286 1.286 0 0 0 2.559 3.2v7.04h7.043c.46.007.89-.235 1.12-.634a1.27 1.27 0 0 0 0-1.289 1.266 1.266 0 0 0-1.12-.636h-2.47A12.107 12.107 0 0 1 16 3.84c6.73 0 12.16 5.43 12.16 12.16S22.73 28.16 16 28.16 3.84 22.73 3.84 16c.008-.46-.235-.89-.633-1.125a1.295 1.295 0 0 0-1.293 0c-.398.234-.64.664-.633 1.125 0 8.113 6.606 14.719 14.719 14.719S30.719 24.113 30.719 16 24.113 1.281 16 1.281m0 10.239c-2.46 0-4.48 2.02-4.48 4.48 0 2.46 2.02 4.48 4.48 4.48 2.46 0 4.48-2.02 4.48-4.48 0-2.46-2.02-4.48-4.48-4.48m0 2.558c1.074 0 1.922.848 1.922 1.922a1.895 1.895 0 0 1-.559 1.363c-.36.364-.851.563-1.363.559a1.895 1.895 0 0 1-1.363-.559A1.895 1.895 0 0 1 14.078 16c0-1.074.848-1.922 1.922-1.922m0 0"/></svg>
